icon-themes/sifr_svg/cmd/lc_connectorarrows.svg

<svg viewBox="0 0 24 24" xmlns="http://www.w3.org/2000/svg"><path d="m6 1c-.30945 0-.55232.0903-.75.28125l-4.25 3.71875c1.41667 1.073 2.83333 2.64574 4.25 3.71875.19768.19095.44055.28125.75.28125h.5859375.4140625v-1c0-.25689-.12983-.52845-.3125-.71875l-1.5097656-1.28125h5.8222656v13 1h7.822266l-1.509766 1.28125c-.18267.1903-.3125.46186-.3125.71875v1h.414062.585938c.30945 0 .55232-.0903.75-.28125 1.41667-1.07301 2.83333-2.64575 4.25-3.71875l-4.25-3.71875c-.19768-.19095-.44055-.28125-.75-.28125h-.585938-.414062v1c0 .25689.12983.52846.3125.71875l1.509766 1.28125h-5.822266v-14h-1-6.8222656l1.5097656-1.28125c.18267-.19029.3125-.46186.3125-.71875v-1h-.4140625z" fill="#555753"/></svg>

<svg xmlns="http://www.w3.org/2000/svg" viewBox="0 0 24 24">
 <path
     style="fill:#555753"
     d="M 6 1 C 5.69055 1 5.44768 1.0903 5.25 1.28125 L 1 5 C 2.41667 6.073 3.83333 7.64574 5.25 8.71875 C 5.44768 8.9097 5.69055 9 6 9 L 6.5859375 9 L 7 9 L 7 8 C 7 7.74311 6.87017 7.47155 6.6875 7.28125 L 5.1777344 6 L 11 6 L 11 19 L 11 20 L 18.822266 20 L 17.3125 21.28125 C 17.12983 21.47155 17 21.74311 17 22 L 17 23 L 17.414062 23 L 18 23 C 18.30945 23 18.55232 22.9097 18.75 22.71875 C 20.16667 21.64574 21.58333 20.073 23 19 L 18.75 15.28125 C 18.55232 15.0903 18.30945 15 18 15 L 17.414062 15 L 17 15 L 17 16 C 17 16.25689 17.12983 16.52846 17.3125 16.71875 L 18.822266 18 L 13 18 L 13 4 L 12 4 L 5.1777344 4 L 6.6875 2.71875 C 6.87017 2.52846 7 2.25689 7 2 L 7 1 L 6.5859375 1 L 6 1 z "
     />
 </svg>
